src/assets/img/error_setting.svg

<svg width="130" height="213" viewBox="0 0 130 213" fill="none" xmlns="http://www.w3.org/2000/svg">
<g clip-path="url(#clip0_2648_4890)">
<path d="M11.9612 207.706C8.55897 207.627 5.82812 205.113 5.82812 202.021V147.209" stroke="#2F3645" stroke-width="3" stroke-miterlimit="10"/>
<path d="M65.0286 170.334V196.184V196.402" stroke="#2F3645" stroke-width="3" stroke-miterlimit="10" stroke-linecap="round"/>
<path d="M65.0286 197.257V197.15" stroke="#2F3645" stroke-width="3" stroke-miterlimit="10" stroke-linecap="round"/>
<path d="M129.299 150.204V203.843C129.299 208.515 124.966 212.303 119.625 212.303H10.3766C5.03221 212.303 0.702148 208.514 0.702148 203.843V150.13C0.732931 147.404 2.80268 145.108 5.83695 144.28L5.86333 199.093V199.687C5.86333 202.461 8.59417 204.707 11.9964 204.779H58.7329C62.1438 204.779 64.9201 204.779 65.0257 196.873C65.0257 196.915 65.0257 196.959 65.0257 197.003C65.0257 197.047 65.0257 197.099 65.0257 197.149V196.401C65.0257 204.779 67.8445 204.779 71.3214 204.779H118.065C119.621 204.767 121.129 204.242 122.354 203.288C123.493 202.366 124.198 201.097 124.198 199.687V197.172L124.225 144.219C127.156 145.039 129.173 147.234 129.291 149.867C129.296 149.979 129.299 150.09 129.299 150.204Z" fill="#E6B9A6" stroke="#2F3645" stroke-width="3" stroke-miterlimit="10"/>
<path d="M124.198 144.219V189.068V197.172V198.009" stroke="#2F3645" stroke-width="3" stroke-miterlimit="10"/>
<path d="M124.198 199.092C124.195 200.317 123.766 201.504 122.985 202.45C122.97 202.471 122.954 202.49 122.939 202.507C122.336 203.21 121.59 203.777 120.749 204.169C119.908 204.561 118.993 204.77 118.065 204.781" stroke="#2F3645" stroke-width="3" stroke-miterlimit="10"/>
<path d="M65.0286 196.402C65.0286 196.534 65.0286 196.662 65.0286 196.789C65.0271 196.795 65.0271 196.801 65.0286 196.807C65.0286 196.824 65.0286 196.84 65.0286 196.858V196.874" stroke="#2F3645" stroke-width="3" stroke-miterlimit="10"/>
<path d="M124.198 136.076V189.068C124.198 192.209 121.379 194.755 117.902 194.755L71.3243 192.067C65.672 192.067 65.0725 193.596 65.0285 196.185C65.0285 196.379 65.0285 196.582 65.0285 196.789C65.0271 196.795 65.0271 196.801 65.0285 196.807V197.004C65.0285 196.96 65.0285 196.916 65.0285 196.874V196.858C64.9978 193.888 64.8072 192.067 58.7357 192.067L12.1546 194.755C8.67767 194.755 5.86328 192.209 5.86328 189.068V136.076C5.86328 132.934 8.68207 130.381 12.1663 130.381L42.5442 128.15C46.6378 127.849 50.7421 127.698 54.8572 127.697H58.7343C62.2112 127.697 65.03 131.59 65.03 134.731C65.03 131.59 67.8488 127.697 71.3258 127.697H75.1369C79.2412 127.697 83.3363 127.848 87.422 128.15L117.911 130.387C121.379 130.387 124.198 132.934 124.198 136.076Z" fill="white" stroke="#2F3645" stroke-width="3" stroke-linejoin="round"/>
<path d="M65.0198 153.457C67.8322 153.457 70.1121 151.894 70.1121 149.966C70.1121 148.038 67.8322 146.475 65.0198 146.475C62.2074 146.475 59.9275 148.038 59.9275 149.966C59.9275 151.894 62.2074 153.457 65.0198 153.457Z" stroke="#2F3645" stroke-width="3" stroke-miterlimit="10" stroke-linecap="round"/>
<path d="M74.0317 145.191L78.2225 148.998" stroke="#2F3645" stroke-width="3" stroke-miterlimit="10" stroke-linecap="round"/>
<path d="M74.0317 148.998L78.2225 145.191" stroke="#2F3645" stroke-width="3" stroke-miterlimit="10" stroke-linecap="round"/>
<path d="M51.8406 145.191L56.0299 148.998" stroke="#2F3645" stroke-width="3" stroke-miterlimit="10" stroke-linecap="round"/>
<path d="M51.8406 148.998L56.0299 145.191" stroke="#2F3645" stroke-width="3" stroke-miterlimit="10" stroke-linecap="round"/>
</g>
<path d="M90.7718 2H40.2595C37.3366 1.99941 34.4422 2.57462 31.7415 3.69278C29.0409 4.81094 26.587 6.45015 24.5199 8.51678C22.4529 10.5834 20.8132 13.037 19.6945 15.7374C18.5758 18.4378 18 21.3321 18 24.2551V74.7941C18 77.7171 18.5758 80.6114 19.6945 83.3118C20.8132 86.0122 22.4529 88.4658 24.5199 90.5324C26.587 92.599 29.0409 94.2383 31.7415 95.3564C34.4422 96.4746 37.3366 97.0498 40.2595 97.0492H54.8622L60.8106 107.747C61.183 108.416 61.7236 108.976 62.3789 109.371C63.0342 109.767 63.7815 109.984 64.5466 110.001C65.3118 110.019 66.0683 109.836 66.7411 109.472C67.4139 109.107 67.9798 108.573 68.3825 107.922L75.0912 97.0492H90.7449C93.6675 97.0492 96.5615 96.4735 99.2616 95.3551C101.962 94.2367 104.415 92.5974 106.482 90.5308C108.548 88.4643 110.188 86.0109 111.306 83.3108C112.424 80.6107 113 77.7167 113 74.7941V24.2551C113 18.3573 110.659 12.7007 106.491 8.52784C102.323 4.35497 96.6695 2.00711 90.7718 2Z" stroke="#2F3645" stroke-width="3" stroke-miterlimit="10"/>
<path d="M94.9808 73.4248L60.0119 38.4558C58.6431 37.0871 56.424 37.0871 55.0553 38.4558L53.9152 39.5959C52.5465 40.9646 52.5465 43.1838 53.9152 44.5525L88.8842 79.5214C90.2529 80.8902 92.4721 80.8902 93.8408 79.5214L94.9808 78.3814C96.3496 77.0127 96.3496 74.7935 94.9808 73.4248Z" stroke="#2F3645" stroke-width="5" stroke-miterlimit="10"/>
<path d="M68.8008 60.2083L48.9283 80.0809C48.4739 80.5515 47.9294 80.9258 47.3273 81.1815C46.7251 81.4371 46.0776 81.5689 45.4234 81.5689C44.7693 81.5689 44.1218 81.4371 43.5196 81.1815C42.9175 80.9258 42.373 80.5515 41.9186 80.0809L39.9909 78.1532C39.5203 77.6988 39.146 77.1543 38.8903 76.5522C38.6347 75.95 38.5029 75.3025 38.5029 74.6483C38.5029 73.9942 38.6347 73.3467 38.8903 72.7445C39.146 72.1424 39.5203 71.5979 39.9909 71.1435L60.0036 51.4111L68.8008 60.2083Z" stroke="#2F3645" stroke-width="5" stroke-miterlimit="10"/>
<path d="M41.0075 35.2544L55.0269 21.235C55.0269 21.235 67.0836 19.132 68.7309 27.5087H61.7212C61.7212 27.5087 59.3729 28.455 59.6533 33.2917L49.6294 43.7011L44.6175 44.5773C44.6175 44.5773 42.6548 45.769 42.5146 50.4655L40.3766 52.6034L32 44.2619L34.0328 42.2291L38.7994 41.3528C38.7994 41.3528 40.7271 40.9323 41.0075 35.2544Z" stroke="#2F3645" stroke-width="5" stroke-linecap="round" stroke-linejoin="round"/>
<path d="M81.8759 32.0625L82.7871 27.5062L92.4605 22.8447L97.0168 27.4361L92.4605 37.2497L87.4135 37.9857L81.8759 32.0625Z" stroke="#2F3645" stroke-width="5" stroke-linecap="round" stroke-linejoin="round"/>
<path d="M81.1985 32.3896L62.4377 51.1504L68.6831 57.3957L87.4439 38.6349L81.1985 32.3896Z" fill="white" stroke="#2F3645" stroke-width="5" stroke-linecap="round" stroke-linejoin="round"/>
<path d="M54.2922 57.123L63.0894 65.9202" stroke="#2F3645" stroke-width="5" stroke-miterlimit="10"/>
<defs>
<clipPath id="clip0_2648_4890">
<rect width="130" height="86" fill="white" transform="translate(0 127)"/>
</clipPath>
</defs>
</svg>

<svg width="130" height="213" fill="none" xmlns="http://www.w3.org/2000/svg"><g clip-path="url(#a)" stroke="#2F3645" stroke-width="3"><path d="M11.961 207.706c-3.402-.079-6.133-2.593-6.133-5.685v-54.812" stroke-miterlimit="10"/><path d="M65.029 170.334v26.068M65.029 197.257v-.107" stroke-miterlimit="10" stroke-linecap="round"/><path d="M129.299 150.204v53.639c0 4.672-4.333 8.46-9.674 8.46H10.377c-5.345 0-9.675-3.789-9.675-8.46V150.13c.03-2.726 2.1-5.022 5.135-5.85l.026 54.813v.594c0 2.774 2.731 5.02 6.133 5.092h46.737c3.41 0 6.187 0 6.293-7.906v.276-.748c0 8.378 2.819 8.378 6.295 8.378h46.744a7.07 7.07 0 0 0 4.289-1.491c1.139-.922 1.844-2.191 1.844-3.601v-2.515l.027-52.953c2.931.82 4.948 3.015 5.066 5.648.005.112.008.223.008.337z" fill="#E6B9A6" stroke-miterlimit="10"/><path d="M124.198 144.219v53.79M124.198 199.092a5.296 5.296 0 0 1-1.259 3.415 6.507 6.507 0 0 1-2.19 1.662 6.537 6.537 0 0 1-2.684.612M65.029 196.402v.387a.037.037 0 0 0 0 .018v.067" stroke-miterlimit="10"/><path d="M124.198 136.076v52.992c0 3.141-2.819 5.687-6.296 5.687l-46.578-2.688c-5.652 0-6.251 1.529-6.296 4.118v.604a.04.04 0 0 0 0 .018v.197V196.858c-.03-2.97-.22-4.791-6.292-4.791l-46.581 2.688c-3.477 0-6.292-2.546-6.292-5.687v-52.992c0-3.142 2.82-5.695 6.303-5.695l30.378-2.231a168.41 168.41 0 0 1 12.313-.453h3.877c3.477 0 6.296 3.893 6.296 7.034 0-3.141 2.819-7.034 6.296-7.034h3.81c4.105 0 8.2.151 12.286.453l30.489 2.237c3.468 0 6.287 2.547 6.287 5.689z" fill="#fff" stroke-linejoin="round"/><path d="M65.02 153.457c2.812 0 5.092-1.563 5.092-3.491 0-1.928-2.28-3.491-5.092-3.491-2.813 0-5.092 1.563-5.092 3.491 0 1.928 2.28 3.491 5.092 3.491zM74.032 145.191l4.19 3.807M74.032 148.998l4.19-3.807M51.84 145.191l4.19 3.807M51.84 148.998l4.19-3.807" stroke-miterlimit="10" stroke-linecap="round"/></g><path d="M90.772 2H40.259A22.255 22.255 0 0 0 18 24.255v50.54a22.255 22.255 0 0 0 22.26 22.254h14.602l5.949 10.698a4.388 4.388 0 0 0 3.736 2.254 4.396 4.396 0 0 0 3.835-2.079l6.71-10.873h15.653A22.256 22.256 0 0 0 113 74.794V24.255A22.255 22.255 0 0 0 90.772 2z" stroke="#2F3645" stroke-width="3" stroke-miterlimit="10"/><path d="m94.98 73.425-34.968-34.97a3.505 3.505 0 0 0-4.957 0l-1.14 1.14a3.505 3.505 0 0 0 0 4.958l34.97 34.968a3.505 3.505 0 0 0 4.956 0l1.14-1.14a3.505 3.505 0 0 0 0-4.956zM68.8 60.208 48.929 80.081a4.874 4.874 0 0 1-7.01 0l-1.927-1.928a4.874 4.874 0 0 1 0-7.01l20.013-19.732 8.797 8.797z" stroke="#2F3645" stroke-width="5" stroke-miterlimit="10"/><path d="m41.008 35.254 14.019-14.019s12.057-2.103 13.704 6.274h-7.01s-2.348.946-2.068 5.783L49.63 43.702l-5.011.875s-1.963 1.192-2.103 5.889l-2.138 2.137L32 44.262l2.033-2.033 4.766-.876s1.928-.42 2.209-6.099zM81.876 32.063l.911-4.557 9.673-4.661 4.557 4.591-4.556 9.814-5.047.736-5.538-5.923z" stroke="#2F3645" stroke-width="5" stroke-linecap="round" stroke-linejoin="round"/><path d="m81.198 32.39-18.76 18.76 6.245 6.246 18.76-18.761-6.245-6.245z" fill="#fff" stroke="#2F3645" stroke-width="5" stroke-linecap="round" stroke-linejoin="round"/><path d="m54.292 57.123 8.797 8.797" stroke="#2F3645" stroke-width="5" stroke-miterlimit="10"/><defs><clipPath id="a"><path fill="#fff" transform="translate(0 127)" d="M0 0h130v86H0z"/></clipPath></defs></svg>
